X:1
T:But Not for Me
C:George Gershwin
M:4/4
L:1/4
Q:1/4=88
K:Eb
% A section (bars 1-8)
G | E3/2 _D/2 C B | G3 G | E3/2 _D/2 C B | G4 |
F3/2 E/2 _D C | B3 B | c3/2 B/2 A G | F4 |
% A section repeat (bars 9-16)
E3/2 _D/2 C B | G3 G | E3/2 _D/2 C B | G4 |
A3/2 G/2 F E | _D3 _D | E3/2 _D/2 C B | E4 |]
